22x22/apps/terminus.svg

<svg xmlns="http://www.w3.org/2000/svg" width="22" height="22" version="1">
 <g transform="matrix(.5 0 0 .5 -1 -1)">
  <rect style="fill:#345c6e" width="40" height="40" x="-44" y="-44" rx="2" ry="2" transform="matrix(0,-1,-1,0,0,0)"/>
  <path style="opacity:.1;fill:#f4f4f7" d="m4 7v-1c0-1.108 0.892-2 2-2h36c1.108 0 2 0.892 2 2v1c0-1.108-0.892-2-2-2h-36c-1.108 0-2 0.892-2 2z"/>
  <path style="opacity:.2" d="m4 42v1c0 1.108 0.892 2 2 2h36c1.108 0 2-0.892 2-2v-1c0 1.108-0.892 2-2 2h-36c-1.108 0-2-0.892-2-2z"/>
  <path style="opacity:.2" d="m12 14v4.5l11 6.707579-11 6.292421v4.5l4.804092 3 19.195908-11.039674v-5.723292l-19.539083-11.237034z"/>
  <path style="fill:#a1ceea" d="m12 13v4.5l11 6.707579-11 6.292421v4.5l4.804092 3 19.195908-11.039674v-5.723292l-19.539083-11.237034z"/>
  <path style="opacity:.2;fill:#f4f4f7" d="m16.460938 10-4.460938 3v1l4.460938-3 19.539062 11.236328v-1l-19.539062-11.236328zm5.693359 14.691406-10.154297 5.808594v1l11-6.292969-0.845703-0.515625z"/>
 </g>
</svg>

<svg xmlns="http://www.w3.org/2000/svg" width="22" height="22" version="1"><g transform="matrix(.5 0 0 .5 -1 -1)"><rect style="fill:#345c6e" width="40" height="40" x="-44" y="-44" rx="2" ry="2" transform="matrix(0 -1 -1 0 0 0)"/><path style="opacity:.1;fill:#f4f4f7" d="M4 7V6c0-1.108.892-2 2-2h36c1.108 0 2 .892 2 2v1c0-1.108-.892-2-2-2H6c-1.108 0-2 .892-2 2z"/><path style="opacity:.2" d="M4 42v1c0 1.108.892 2 2 2h36c1.108 0 2-.892 2-2v-1c0 1.108-.892 2-2 2H6c-1.108 0-2-.892-2-2zM12 14v4.5l11 6.708L12 31.5V36l4.804 3L36 27.96v-5.723L16.46 11z"/><path style="fill:#a1ceea" d="M12 13v4.5l11 6.708L12 30.5V35l4.804 3L36 26.96v-5.723L16.46 10z"/><path style="opacity:.2;fill:#f4f4f7" d="M16.46 10 12 13v1l4.46-3L36 22.236v-1L16.46 10zm5.694 14.691L12 30.5v1l11-6.293-.846-.516z"/></g></svg>
